X:1
T:The Kesh Jig
M:6/8
L:1/8
Q:80
C:
S:Jig
K:HP
|: {g}A{d}A{e}A{g}ABc | \
{g}B{d}c{e}B{g}B{d}ce | \
{g}fe{A}eae{A}e |
{g}fec{g}ecB | \
{g}A{d}A{e}A{g}ABc | \
{g}B{d}c{e}B{g}B{d}ce |
{g}fe{A}eaec|1  | \
{gBd}B2A{g}A{d}B{e}G|2  | \
{gBd}B2A{gAGAG}A3 ::
{g}c{d}c{e}c{g}ece | \
{g}faf{g}ec{d}A | \
{g}c{d}c{e}c{g}ec{d}A |
{g}B{d}c{e}B{g}BAB | \
{g}c{d}c{e}c{g}ece | \
{g}faf{g}ece |
{ag}a3cB{G}B | \
{g}c{d}A{e}A{GAG}A3 :|
